X: 753
T: Air From France
R: reel
M: 4/4
K: Bminor
|:(3AB{e}d e3-e2z|a/Jb/~e6z|z(3AB{e}d e3 Jba-|a/{c'}a/g/f/{a}f/d/d/Je/e4:|
z4Ja2{c'}a/g/ f/{a}f/|dJB3zB/c/d/e/c-|cz2 fg/>{a}g/f3-|
f2zJaJa {c'}b//a//gf/{a}f/d/|JB3zB/c/d/e/c2-|cz2fg/{a}g/f3-|f2zf/a/Jb3z|
b/c'/b/{c'}b/a3/2 z a/b/a/{c'}a/g/{a}g/f/|Jg/a/{c'}a/g/f/{a}f/d/A/JB2zB/c/|d/e/!>!c3zF2A|JB6z2:|

